X:1
T:Glade Jul
T:Die heilige Nacht
T:Franz Gruber arr.: Hermann Riedel 
T:Stille Nacht
T:Josef Mohr
C:Franz Gruber
%%score [ 1 2 3 4 ]
L:1/8
Q:3/8=50
M:6/8
K:Eb
V:1 treble-8 nm="T1"
V:2 treble-8 nm="T2"
V:3 bass nm="B1"
V:4 bass nm="B2"
V:1
"^Langsam" (B>c) B G3 | B3/2 c/ B G3 | (f>=e) f d3 | (_e>d) e B3 | c2 c (e3/2 d/) c | %5
w: 1.Stil- * le Nacht,|hei- li- ge Nacht!|Al- * les schläft,|ein- * sam wacht|nur das trau- te, hoch-|
 (B3/2 c/) B G3 | c2 c (e3/2 d/) c | (B3/2 c/) B G3 | (f f) f a3/2 f/ d | (e3 g2) z | %10
w: hei- li- ge Paar.|Hol- der Kna- be im|loc- ki- gen Haar,|schla- fe in himm- li- scher|Ruh, _|
 (e3/2 B/) G B3/2 A/ F | E3- E z z |] %12
w: schla- fe in himm- li- scher|Ruh! _|
V:2
 (G>A) G E3 | G3/2 A/ G E3 | B2 B B3 | B2 B B3 | A2 A (A3/2 A/) A | (G3/2 A/) G E3 | %6
w: 1.Stil- * le Nacht,|hei- li- ge Nacht!|Al- les schläft,|ein- sam wacht|nur das trau- te, hoch-|hei- li- ge Paar.|
 A2 A (A3/2 A/) A | (G3/2 A/) G E3 | (c c) c d3/2 B/ B | (B3 e2) z | (B3/2 G/) E B3/2 A/ F | %11
w: Hol- der Kna- be im|loc- ki- gen Haar,|schla- fe in himm- li- scher|Ruh, _|schla- fe in himm- li- scher|
 E3- E z z |] %12
w: Ruh! _|
V:3
 E,2 E, E,3 | E,3/2 E,/ E, E,3 | (A,>G,) A, A,3 | (G,>A,) B, G,3 | E,2 E, (E,3/2 E,/) E, | %5
w: 1.Stil- le Nacht,|hei- li- ge Nacht!|Al- * les schläft,|ein- * sam wacht|nur das trau- te, hoch-|
 (E,3/2 E,/) E, E,3 | E,2 E, (E,3/2 E,/) E, | (E,3/2 E,/) E, E,3 | (A, A,) A, F,3/2 A,/ A, | %9
w: hei- li- ge Paar.|Ho- der Kna- be im|loc- ki- gen Haar,|schla- fe in himm- li- scher|
 (G,3 B,2) z | (E,3/2 E,/) E, G,3/2 F,/ D, | E,3- E, z z |] %12
w: Ruh, _|schla- fe in himm- li- scher|Ruh! _|
V:4
 E,2 E, E,3 | E,3/2 E,/ E, E,3 | B,,2 D, F,3 | (E,>F,) G, E,3 | A,,2 A,, (C,3/2 B,,/) A,, | %5
w: 1.Stil- le Nacht,|hei- li- ge Nacht!|Al- les schläft,|ein- * sam wacht|nur das trau- te, hoch-|
 (E,3/2 E,/) E, E,3 | A,,2 A,, (C,3/2 B,,/) A,, | (E,3/2 E,/) E, E,3 | %8
w: hei- li- ge Paar.|Ho- der Kna- be im|loc- ki- gen Haar,|
 (A,, A,,) A,, B,,3/2 D,/ F, | (E,3 E,2) z | (G,,3/2 B,,/) E, B,,3/2 B,,/ B,, | %11
w: schla- fe in himm- li- scher|Ruh, _|schla- fe in himm- li- scher|
 [E,,E,]3- [E,,E,] z z |] %12
w: Ruh! _|

